assets/img/visual-studio-and-redgate2.svg

<svg height="231" viewBox="0 0 788 231" width="788" xmlns="http://www.w3.org/2000/svg"><g fill="#222" fill-rule="evenodd"><path d="m172.4885 0v197.54125l-172.4885-25.622 172.4885 58.08075 57.49425-23.92v-182.16zm-113.2175 110.653 52.82525 52.26175 31.625-13.455v-102.465l-31.625-13.455-52.82525 52.2675-31.809-23.9775-13.10425 4.38725v64.02625l13.10425 4.38725zm52.82525-39.81875v54.7975l-36.34575-27.39875zm-84.63425 8.349 19.251 19.044-19.251 19.04975z" fill-rule="nonzero"/><g transform="translate(612 1)"><path d="m131.717674 104.205638-64.4818001-1.599418 22.4519807 23.726705 42.0298194-1.046236z"/><path d="m121.946793 160.411352 9.764868-1.022184v-20.19115l-28.308496 1.62347z"/><path d="m.63274026 173.14777 104.47927674-10.967437-20.0468412-20.311407-84.43243554 4.858383z"/><path d="m45.7820261 102.074684-45.14447556-1.11839v27.586955l69.55664536-1.731701z"/><path d="m51.2020088 85.6740355 80.5120572 4.6298943v-20.1911493l-105.7540002-11.1117463z"/><path d="m.63274026 56.3493675v26.4204616l27.64708294 1.5873923z"/><path d="m137.828326 174.468847c2.48932-.348745 5.519796-3.451376 5.519796-8.430015v-102.2184452c0-4.8343312-2.874142-8.0572187-5.519796-8.4300153l-136.75625393-19.4094789v-17.2087758c15.48910083-11.09972058 48.21102893-18.7721168 86.20021333-18.7721168 37.9891846 0 70.7111126 7.67239622 86.2002136 18.7721168v192.3149852c-15.489101 11.09972-48.211029 18.772116-86.2002136 18.772116-37.9891844 0-70.7111125-7.672396-86.20021333-18.772116v-17.208776z"/></g><g transform="translate(347 56)"><path d="m45 0h30v120h-30z"/><path d="m45 0h30v120h-30z" transform="matrix(0 1 -1 0 120 0)"/></g></g></svg>

<?xml version="1.0" encoding="UTF-8"?>
<svg width="788px" height="231px" viewBox="0 0 788 231" version="1.1" xmlns="http://www.w3.org/2000/svg" xmlns:xlink="http://www.w3.org/1999/xlink">
    <!-- Generator: Sketch 44.1 (41455) - http://www.bohemiancoding.com/sketch -->
    <title>Artboard Copy 7</title>
    <desc>Created with Sketch.</desc>
    <defs></defs>
    <g id="Mockups" stroke="none" stroke-width="1" fill="none" fill-rule="evenodd">
        <g id="Artboard-Copy-7" fill="#222222">
            <g id="Visual_Studio_2017_logo_and_wordmark" fill-rule="nonzero">
                <path d="M172.4885,0 L172.4885,197.54125 L0,171.91925 L172.4885,230 L229.98275,206.08 L229.98275,23.92 L172.4885,0 Z M59.271,110.653 L112.09625,162.91475 L143.72125,149.45975 L143.72125,46.99475 L112.09625,33.53975 L59.271,85.80725 L27.462,61.82975 L14.35775,66.217 L14.35775,130.24325 L27.462,134.6305 L59.271,110.653 Z M112.09625,70.83425 L112.09625,125.63175 L75.7505,98.233 L112.09625,70.83425 Z M27.462,79.18325 L46.713,98.22725 L27.462,117.277 L27.462,79.18325 Z" id="iconBg"></path>
            </g>
            <g id="Red-RG-Logo-Copy" transform="translate(612.000000, 1.000000)">
                <g id="White-RG-Logo">
                    <polygon id="Fill-5" points="131.717674 104.205638 67.2358739 102.60622 89.6878546 126.332925 131.717674 125.286689"></polygon>
                    <polygon id="Fill-6" points="121.946793 160.411352 131.711661 159.389168 131.711661 139.198018 103.403165 140.821488"></polygon>
                    <polygon id="Fill-7" points="0.632740257 173.14777 105.112017 162.180333 85.0651758 141.868926 0.632740257 146.727309"></polygon>
                    <polygon id="Fill-8" points="45.7820261 102.074684 0.637550537 100.956294 0.637550537 128.543249 70.1941959 126.811548"></polygon>
                    <polygon id="Fill-9" points="51.2020088 85.6740355 131.714066 90.3039298 131.714066 70.1127805 25.9600658 59.0010342"></polygon>
                    <polygon id="Fill-10" points="0.632740257 56.3493675 0.632740257 82.7698291 28.2798232 84.3572214"></polygon>
                    <path d="M137.828326,174.468847 C140.317646,174.120102 143.348122,171.017471 143.348122,166.038832 L143.348122,63.8203868 C143.348122,58.9860556 140.47398,55.7631681 137.828326,55.3903715 L1.07207207,35.9808926 L1.07207207,18.7721168 C16.5611729,7.67239622 49.283101,0 87.2722854,0 C125.26147,0 157.983398,7.67239622 173.472499,18.7721168 L173.472499,211.087102 C157.983398,222.186822 125.26147,229.859218 87.2722854,229.859218 C49.283101,229.859218 16.5611729,222.186822 1.07207207,211.087102 L1.07207207,193.878326 L137.828326,174.468847" id="Fill-11"></path>
                </g>
            </g>
            <g id="Group" transform="translate(347.000000, 56.000000)">
                <rect id="Rectangle-6" x="45" y="0" width="30" height="120"></rect>
                <rect id="Rectangle-6" transform="translate(60.000000, 60.000000) rotate(90.000000) translate(-60.000000, -60.000000) " x="45" y="0" width="30" height="120"></rect>
            </g>
        </g>
    </g>
</svg>
